src/assets/filled/ReceiptSearch.svg

<?xml version="1.0" encoding="UTF-8"?>
<svg width="24" height="24" viewBox="0 0 24 24" xmlns="http://www.w3.org/2000/svg">
 <path d="m15.78 2h-7.56c-3.78 0-4.72 1.01-4.72 5.04v11.26c0 2.66 1.46 3.29 3.23 1.39l0.01-0.01c0.82-0.87 2.07-0.8 2.78 0.15l1.01 1.35c0.81 1.07 2.12 1.07 2.93 0l1.01-1.35c0.72-0.96 1.97-1.03 2.79-0.15 1.78 1.9 3.23 1.27 3.23-1.39v-11.25c0.01-4.03-0.93-5.04-4.71-5.04zm-0.12 12.53c-0.15 0.15-0.34 0.22-0.53 0.22s-0.38-0.07-0.53-0.22l-0.74-0.74c-0.58 0.38-1.28 0.61-2.03 0.61-2.04 0-3.7-1.66-3.7-3.7s1.65-3.7 3.7-3.7 3.7 1.66 3.7 3.7c0 0.75-0.23 1.45-0.61 2.03l0.74 0.74c0.29 0.29 0.29 0.77 0 1.06z"/>
</svg>

<svg width="24" height="24" viewBox="0 0 24 24"  xmlns="http://www.w3.org/2000/svg">
<path d="M15.78 2H8.22C4.44 2 3.5 3.01 3.5 7.04V18.3C3.5 20.96 4.96 21.59 6.73 19.69L6.74 19.68C7.56 18.81 8.81 18.88 9.52 19.83L10.53 21.18C11.34 22.25 12.65 22.25 13.46 21.18L14.47 19.83C15.19 18.87 16.44 18.8 17.26 19.68C19.04 21.58 20.49 20.95 20.49 18.29V7.04C20.5 3.01 19.56 2 15.78 2ZM15.66 14.53C15.51 14.68 15.32 14.75 15.13 14.75C14.94 14.75 14.75 14.68 14.6 14.53L13.86 13.79C13.28 14.17 12.58 14.4 11.83 14.4C9.79 14.4 8.13 12.74 8.13 10.7C8.13 8.66 9.78 7 11.83 7C13.88 7 15.53 8.66 15.53 10.7C15.53 11.45 15.3 12.15 14.92 12.73L15.66 13.47C15.95 13.76 15.95 14.24 15.66 14.53Z" />
</svg>
